images/ProcessIcons/Information Architecture.svg

<svg width="20" height="20" viewBox="0 0 20 20" fill="none" xmlns="http://www.w3.org/2000/svg">
<path d="M5.43934 0.900026C6.32399 0.898428 7.17714 1.22471 7.82928 1.81446C8.48154 2.40431 8.88502 3.21462 8.9591 4.08452C9.03319 4.95444 8.7724 5.81979 8.22889 6.50865C7.70286 7.17536 6.94935 7.62946 6.11018 7.78816V9.90055H12.2906C12.7188 9.90055 13.1292 9.73293 13.4315 9.43503C13.7338 9.13718 13.9034 8.73353 13.9034 8.31295V7.788C13.0656 7.62794 12.3138 7.1734 11.7891 6.50706C11.247 5.81859 10.987 4.95432 11.061 4.08556C11.135 3.21681 11.5375 2.40746 12.1884 1.81778C12.8392 1.22814 13.6907 0.901107 14.5743 0.901107C15.4579 0.901107 16.3095 1.22814 16.9603 1.81778C17.6111 2.40746 18.0136 3.21681 18.0876 4.08556C18.1616 4.95432 17.9016 5.81859 17.3595 6.50706C16.8349 7.1734 16.083 7.62794 15.2453 7.788V8.31295C15.2453 9.08592 14.9336 9.82693 14.3793 10.373C13.8251 10.9191 13.0737 11.2256 12.2906 11.2256H6.11018V12.2131C6.94795 12.3732 7.69976 12.8277 8.22444 13.494C8.76655 14.1825 9.02653 15.0468 8.95254 15.9155C8.87854 16.7843 8.47602 17.5936 7.82519 18.1833C7.17441 18.773 6.32282 19.1 5.43923 19.1C4.55565 19.1 3.70406 18.773 3.05328 18.1833C2.40245 17.5936 1.99993 16.7843 1.92593 15.9155C1.85194 15.0468 2.11192 14.1825 2.65403 13.494C3.17871 12.8277 3.93052 12.3732 4.76829 12.2131V7.78945C3.92763 7.63221 3.1723 7.17859 2.64484 6.5115C2.09983 5.82222 1.83818 4.9557 1.91236 4.08455C1.98653 3.21341 2.39103 2.40209 3.04482 1.81206C3.6985 1.22213 4.55344 0.896641 5.43934 0.900026ZM5.43934 0.900026C5.43943 0.900027 5.43953 0.900027 5.43962 0.900027L5.43923 1.00003L5.43905 0.900027C5.43914 0.900026 5.43924 0.900026 5.43934 0.900026ZM3.89455 5.89507C3.48517 5.49173 3.25546 4.94499 3.25546 4.37522C3.25546 3.80546 3.48517 3.25872 3.89455 2.85537C4.30397 2.45198 4.85959 2.22509 5.43923 2.22509C6.01888 2.22509 6.5745 2.45198 6.98392 2.85537C7.3933 3.25872 7.62301 3.80546 7.62301 4.37522C7.62301 4.94499 7.3933 5.49173 6.98392 5.89507C6.5745 6.29847 6.01888 6.52536 5.43923 6.52536C4.85959 6.52536 4.30397 6.29847 3.89455 5.89507ZM3.89455 17.1457C3.48517 16.7424 3.25546 16.1957 3.25546 15.6259C3.25546 15.0561 3.48517 14.5094 3.89455 14.106C4.30397 13.7026 4.85959 13.4758 5.43923 13.4758C6.01888 13.4758 6.5745 13.7026 6.98392 14.106C7.3933 14.5094 7.62301 15.0561 7.62301 15.6259C7.62301 16.1957 7.3933 16.7424 6.98392 17.1457C6.5745 17.5491 6.01888 17.776 5.43923 17.776C4.85959 17.776 4.30397 17.5491 3.89455 17.1457ZM16.119 5.89507C15.7096 6.29847 15.154 6.52536 14.5743 6.52536C13.9947 6.52536 13.4391 6.29847 13.0296 5.89507C12.6203 5.49173 12.3906 4.94499 12.3906 4.37522C12.3906 3.80546 12.6203 3.25872 13.0296 2.85537C13.4391 2.45198 13.9947 2.22509 14.5743 2.22509C15.154 2.22509 15.7096 2.45198 16.119 2.85537C16.5284 3.25872 16.7581 3.80546 16.7581 4.37522C16.7581 4.94499 16.5284 5.49173 16.119 5.89507Z" fill="black" stroke="black" stroke-width="0.2"/>
</svg>

<svg xmlns="http://www.w3.org/2000/svg" width="20" height="20" fill="none" xmlns:v="https://vecta.io/nano"><path d="M5.439.9c.885-.002 1.738.325 2.39.914s1.056 1.4 1.13 2.27a3.44 3.44 0 0 1-.73 2.424c-.526.667-1.28 1.121-2.119 1.28v2.112h6.18c.428 0 .839-.168 1.141-.466s.472-.701.472-1.122v-.525c-.838-.16-1.59-.615-2.114-1.281a3.44 3.44 0 0 1-.728-2.421c.074-.869.476-1.678 1.127-2.268s1.502-.917 2.386-.917 1.735.327 2.386.917 1.053 1.399 1.127 2.268a3.44 3.44 0 0 1-.728 2.422c-.525.666-1.277 1.121-2.114 1.281v.525a2.89 2.89 0 0 1-.866 2.06c-.554.546-1.306.853-2.089.853H6.11v.988c.838.16 1.59.615 2.114 1.281a3.44 3.44 0 0 1 .728 2.422c-.074.869-.477 1.678-1.127 2.268s-1.502.917-2.386.917-1.735-.327-2.386-.917S2 16.784 1.926 15.916a3.44 3.44 0 0 1 .728-2.421c.525-.666 1.276-1.121 2.114-1.281V7.789c-.841-.157-1.596-.611-2.123-1.278a3.44 3.44 0 0 1-.732-2.427c.074-.871.479-1.682 1.132-2.272S4.553.897 5.439.9zm0 0V1 .9zM3.895 5.895c-.409-.403-.639-.95-.639-1.52s.23-1.116.639-1.52a2.2 2.2 0 0 1 1.545-.63 2.2 2.2 0 0 1 1.545.63c.409.403.639.95.639 1.52s-.23 1.117-.639 1.52a2.2 2.2 0 0 1-1.545.63 2.2 2.2 0 0 1-1.545-.63zm0 11.251c-.409-.403-.639-.95-.639-1.52s.23-1.117.639-1.52a2.2 2.2 0 0 1 1.545-.63 2.2 2.2 0 0 1 1.545.63c.409.403.639.95.639 1.52s-.23 1.117-.639 1.52a2.2 2.2 0 0 1-1.545.63 2.2 2.2 0 0 1-1.545-.63zM16.119 5.895a2.2 2.2 0 0 1-3.089 0c-.409-.403-.639-.95-.639-1.52s.23-1.116.639-1.52a2.2 2.2 0 0 1 3.089 0c.409.403.639.95.639 1.52s-.23 1.117-.639 1.52z" fill="#000" stroke="#000" stroke-width=".2"/></svg>
